!!!!SEGMENT: pl-sa--l-1643--059_anonim--magnifikat-6-toni-8-vocum.krn
!!!cenid: 16xx:1417
!!!COM: Anonim
!!!COM-rismID: pe30004985
!!!CDT:
!!!CNT:
!!!OTL: Magnifikat 6 toni 8 Vocum
!!!PDT:
!!!AGN: Sacred
!!!SMS-siglum: PL-SA
!!!SMS-shelfmark: L 1643
!!!SMS-shelfwork: 059 W
!!!SMS-variant:
!!!SMS-altvar:
!!!NIFC-rismSourceID: 1001064483
!!!NIFC-islandoraID:
!!!URL-pdf-islandora:
!!!URL-scan:
!!!ONB-nifc: UWAGA: 8 ksiąg. Primi chori: 1mus Cantus (x), C 2dus (92-93), C 3tius (90-91), Bassus (36-38); Secondi chori: Primus Cantus (x), C 2dus (30-31), Altus (36-37), Bassus (36-37). UWAGA: Nie dodawać pustych linii, chyba że w rękopisie pojawiają się dodatkowe oznaczenia dotyczące pełnej obsady (a 4, a 8 itp.)
!!!AIN: 8 empty
!!!key:
**kern	**text	**kern	**text	**kern	**text	**kern	**kern	**text	**kern	**text	**kern	**text	**kern
*part8	*part8	*part7	*part7	*part6	*part6	*part5	*part4	*part4	*part3	*part3	*part2	*part2	*part1
*staff8	*staff8	*staff7	*staff7	*staff6	*staff6	*staff5	*staff4	*staff4	*staff3	*staff3	*staff2	*staff2	*staff1
*group2	*	*group2	*	*group2	*	*group2	*group1	*	*group1	*	*group1	*	*group1
*Iempty	*	*Iempty	*	*Iempty	*	*Iempty	*Iempty	*	*Iempty	*	*Iempty	*	*Iempty
*I"Baſsus 2di Chori.	*	*I"Altus secundi Chori.	*	*I"Cantus 2dus Secundi Chori.	*	*I"Primus Cantus 2di Chori	*I"Bassus Primi Chori.	*	*I"Cantus 3tius Primi Chori	*	*I"Cantus 2dus Primi Chori.	*	*I"1m(us) Cantus Primi Chori
*I'Coro 2 B	*	*I'Coro 2 A	*	*I'Coro 2 S 2	*	*I'Coro 2 S 1	*I'Coro 1 B	*	*I'Coro 1 S 3	*	*I'Coro 1 S 2	*	*I'Coro 1 S 1
*clefC3	*	*clefC2	*	*clefC1	*	*	*clefC3	*	*clefC2	*	*clefC1	*	*
*k[]	*	*k[]	*	*k[]	*	*k[]	*k[]	*	*k[]	*	*k[]	*	*k[]
*C:	*	*C:	*	*C:	*	*C:	*C:	*	*C:	*	*C:	*	*C:
*M2/2	*	*M2/2	*	*M2/2	*	*	*M2/2	*	*M2/2	*	*M2/2	*	*
*met(C|)	*	*met(C|)	*	*met(C|)	*	*	*met(C|)	*	*met(C|)	*	*met(C|)	*	*
=1-	=1-	=1-	=1-	=1-	=1-	=1-	=1-	=1-	=1-	=1-	=1-	=1-	=1-
!LO:TX:a:t=Magnificat 6 Toni	!	!LO:TX:a:t=6 Ton	!	!LO:TX:a:t=6\ntoni	!	!LO:TX:t=P:problem=zgodnie z RISM "both C 1 missing"	!LO:TX:a:t=Magnificat 6 Toni 8 Vocum	!	!LO:TX:a:t=magnificat 6 tonu na osm głoſuw	!	!LO:TX:a:t=Magnifikat 6 toni 8 Vocum	!	!LO:TX:t=P:problem=zgodnie z RISM "both C 1 missing"
1g	Et	1d	Et	2.b\	Et	1ryy	1G	Et	1g	Et	1g	Et	1ryy
.	.	.	.	4cc\	.	.	.	.	.	.	.	.	.
=2-	=2-	=2-	=2-	=2-	=2-	=2-	=2-	=2-	=2-	=2-	=2-	=2-	=2-
!	!	!	!	!	!	!	!	!	!LO:TX:a:t=P:problem=# above	!	!	!	!
2d\	e-	2d/	e-	2dd\	e-	1ryy	2d\	e-	2f#X\	e-	2a\	e-	1ryy
2g\	-xul-	2d/	-xul-	2b\	-xul-	.	2G/	-xul-	2g\	-xul-	2b\	-xul-	.
=3-	=3-	=3-	=3-	=3-	=3-	=3-	=3-	=3-	=3-	=3-	=3-	=3-	=3-
4c/	-ta-	1g	-ta-	2.g/	-ta-	1ryy	1c	-ta-	1g	-ta-	1cc	-ta-	1ryy
4d\	.	.	.	.	.	.	.	.	.	.	.	.	.
4e\	.	.	.	.	.	.	.	.	.	.	.	.	.
4f\	.	.	.	4a\	-uit	.	.	.	.	.	.	.	.
=4-	=4-	=4-	=4-	=4-	=4-	=4-	=4-	=4-	=4-	=4-	=4-	=4-	=4-
2g\	-uit	2d/	-uit	2b\	spi-	1ryy	2G/	-uit	2g\	-uit	2b\	-wit	1ryy
2.g\	spi-	2.g\	Spi-	2.dd\	-ri-	.	2r	.	2r	.	2r	.	.
=5-	=5-	=5-	=5-	=5-	=5-	=5-	=5-	=5-	=5-	=5-	=5-	=5-	=5-
.	.	.	.	.	.	1ryy	0r	.	0r	.	0r	.	1ryy
4g\	-ri-	4g\	-ri-	4dd\	-tus	.	.	.	.	.	.	.	.
2f\	-tus	2a\	-tus	2a\	me-	.	.	.	.	.	.	.	.
=6-	=6-	=6-	=6-	=6-	=6-	=6-	=6-	=6-	=6-	=6-	=6-	=6-	=6-
1e	me-	1e	me-	1g	.	1ryy	.	.	.	.	.	.	1ryy
=7-	=7-	=7-	=7-	=7-	=7-	=7-	=7-	=7-	=7-	=7-	=7-	=7-	=7-
!	!	!LO:TX:b:t=P:problem=# below	!	!	!	!	!	!	!	!	!	!	!
2d\	-us	2f#X\	-us	2a\	-us,	1ryy	2r	.	2r	.	2r	.	1ryy
2r	.	2r	.	2r	.	.	2.c/	Spi-	2.g\	spi-	2.cc\	ſpi-	.
=8-	=8-	=8-	=8-	=8-	=8-	=8-	=8-	=8-	=8-	=8-	=8-	=8-	=8-
00r	.	00r	.	00r	.	1ryy	.	.	.	.	.	.	1ryy
.	.	.	.	.	.	.	4c/	-ri-	4g\	-ri-	4cc\	-ri-	.
.	.	.	.	.	.	.	2B/	-tus	2g\	-tus	2dd\	-tuſ	.
=9-	=9-	=9-	=9-	=9-	=9-	=9-	=9-	=9-	=9-	=9-	=9-	=9-	=9-
.	.	.	.	.	.	1ryy	1A	me-	1a	me-	1cc	me-	1ryy
=10-	=10-	=10-	=10-	=10-	=10-	=10-	=10-	=10-	=10-	=10-	=10-	=10-	=10-
.	.	.	.	.	.	1ryy	2G/	-us,	2d/	-us	2b\	-uſ,	1ryy
.	.	.	.	.	.	.	2G/	in	2g\	in	2b\	in	.
=11-	=11-	=11-	=11-	=11-	=11-	=11-	=11-	=11-	=11-	=11-	=11-	=11-	=11-
.	.	.	.	.	.	1ryy	1c	de-	1g	de-	1cc	de-	1ryy
=12-	=12-	=12-	=12-	=12-	=12-	=12-	=12-	=12-	=12-	=12-	=12-	=12-	=12-
2r	.	2r	.	2r	.	1ryy	2G/	-o	2g\	-o	2b\	-o,	1ryy
2g\	in	2g\	in	2b\	in	.	2r	.	2r	.	2r	.	.
=13-	=13-	=13-	=13-	=13-	=13-	=13-	=13-	=13-	=13-	=13-	=13-	=13-	=13-
1c	De-	1g	de-	1cc	de-	1ryy	1r	.	1r	.	1r	.	1ryy
=14-	=14-	=14-	=14-	=14-	=14-	=14-	=14-	=14-	=14-	=14-	=14-	=14-	=14-
2g\	-o	2g\	-o	2b\	-o,	1ryy	2r	.	2r	.	2r	.	1ryy
2r	.	2r	.	2r	.	.	2c/	in	2g\	in	2cc\	in	.
=15-	=15-	=15-	=15-	=15-	=15-	=15-	=15-	=15-	=15-	=15-	=15-	=15-	=15-
1r	.	1r	.	1r	.	1ryy	4F/	de-	1a	de-	1cc	de-	1ryy
.	.	.	.	.	.	.	4G/	.	.	.	.	.	.
.	.	.	.	.	.	.	4A/	.	.	.	.	.	.
.	.	.	.	.	.	.	4B/	.	.	.	.	.	.
=16-	=16-	=16-	=16-	=16-	=16-	=16-	=16-	=16-	=16-	=16-	=16-	=16-	=16-
2r	.	2r	.	2r	.	1ryy	2c/	-o	2g\	-o	2cc\	-o	1ryy
!	!	!	!	!	!	!	!LO:TX:t=P:problem=pauza 2r zamazana	!	!	!	!	!	!
2c/	in	2g\	in	2cc\	in	.	2ryy	.	2r	.	2r	.	.
=17-	=17-	=17-	=17-	=17-	=17-	=17-	=17-	=17-	=17-	=17-	=17-	=17-	=17-
1G	De-	1g	de-	1b	de-	1ryy	1r	.	1r	.	1r	.	1ryy
=18-	=18-	=18-	=18-	=18-	=18-	=18-	=18-	=18-	=18-	=18-	=18-	=18-	=18-
*	*	*	*	*	*	*	*custos:c	*	*	*	*	*	*
2c/	-o	2g\	-o	2cc,<\	-o	1ryy	2r	.	2r	.	2r	.	1ryy
!	!	!	!	!	!	!	!LO:LB:g=original	!	!	!	!	!	!
2c/	sa-	2g\	sa-	2cc\	sa-	.	2c/	Sa-	2g\	sa-	2cc\	ſa-	.
=19-	=19-	=19-	=19-	=19-	=19-	=19-	=19-	=19-	=19-	=19-	=19-	=19-	=19-
*custos:f	*	*	*	*	*	*	*	*	*	*	*	*	*
1c	-lu-	2.e/	-lu-	1cc	-lu-	1ryy	1c	-lu-	1g	-lu-	1cc	-lu-	1ryy
.	.	4fny\	.	.	.	.	.	.	.	.	.	.	.
!LO:LB:g=original	!	!	!	!	!	!	!	!	!	!	!	!	!
=20-	=20-	=20-	=20-	=20-	=20-	=20-	=20-	=20-	=20-	=20-	=20-	=20-	=20-
*	*	*	*	*	*	*	*	*	*custos:g	*	*	*	*
1f	-ta-	2.c/	-ta-	2.a\	-ta-	1ryy	4F/	-ta-	1a	-ta-	1.cc	-ta-	1ryy
.	.	.	.	.	.	.	4G/	.	.	.	.	.	.
.	.	.	.	.	.	.	4A/	.	.	.	.	.	.
*	*	*custos:e	*	*	*	*	*	*	*	*	*	*	*
.	.	4d/	.	4b\	.	.	4B/	.	.	.	.	.	.
!	!	!LO:LB:g=original	!	!	!	!	!	!	!LO:LB:g=original	!	!	!	!
=21-	=21-	=21-	=21-	=21-	=21-	=21-	=21-	=21-	=21-	=21-	=21-	=21-	=21-
4c/	-ri	2.e\	-ri	1cc	-ri	1ryy	1c	-ri	0g	-ri	.	.	1ryy
4d\	.	.	.	.	.	.	.	.	.	.	.	.	.
4e\	.	.	.	.	.	.	.	.	.	.	2g/	-ri	.
4f\	.	4f\	.	.	.	.	.	.	.	.	.	.	.
=22-	=22-	=22-	=22-	=22-	=22-	=22-	=22-	=22-	=22-	=22-	=22-	=22-	=22-
*	*	*	*	*	*	*	*lig	*	*	*	*lig	*	*
*	*	*	*	*custos:g	*	*	*	*	*	*	*	*	*
1g	me-	2g\	.	1b	[[me]]	1ryy	1G	mę-	.	.	1b	me-	1ryy
.	.	2d/	.	.	.	.	.	.	.	.	.	.	.
!	!	!	!	!LO:LB:g=original	!	!	!	!	!	!	!	!	!
=23-	=23-	=23-	=23-	=23-	=23-	=23-	=23-	=23-	=23-	=23-	=23-	=23-	=23-
1c	.	2g\	me-	2.g/	me-	1ryy	1c	.	2.e/	me-	1cc	.	1ryy
.	.	2d/	.	.	.	.	.	.	.	.	.	.	.
.	.	.	.	4a\	.	.	.	.	4fny\	.	.	.	.
*	*	*	*	*	*	*	*Xlig	*	*	*	*Xlig	*	*
=24-	=24-	=24-	=24-	=24-	=24-	=24-	=24-	=24-	=24-	=24-	=24-	=24-	=24-
*	*	*	*	*	*	*	*	*	*	*	*custos:b	*	*
!LO:TX:t=P:problem=podwójna kreska pseudotaktowa	!	!	!	!	!	!	!	!	!	!	!	!	!
1gl;;	-o	1dl;;	-o;	1bl;<	-o;	1ryy	1Gl;;	-o;	1gl;;	-o;	1ddl;;	-o;	1ryy
!	!	!	!	!	!	!	!	!	!	!	!LO:LB:g=original	!	!
=25||	=25||	=25||	=25||	=25||	=25||	=25||	=25||	=25||	=25||	=25||	=25||	=25||	=25||
1g	Qui-	1g	Qui-	1b	Qui-	1ryy	0r	.	0r	.	0r	.	1ryy
=26-	=26-	=26-	=26-	=26-	=26-	=26-	=26-	=26-	=26-	=26-	=26-	=26-	=26-
1d	-a	1f	-a	2a\	-a	1ryy	.	.	.	.	.	.	1ryy
.	.	.	.	2dd\	fe-	.	.	.	.	.	.	.	.
=27-	=27-	=27-	=27-	=27-	=27-	=27-	=27-	=27-	=27-	=27-	=27-	=27-	=27-
1G	-fe-	1g	-fe-	1.dd	-cit	1ryy	1r	.	1r	.	1r	.	1ryy
=28-	=28-	=28-	=28-	=28-	=28-	=28-	=28-	=28-	=28-	=28-	=28-	=28-	=28-
2G/	-cit	2g\	-cit	.	.	1ryy	2r	.	2r	.	2r	.	1ryy
2r	.	2r	.	2r	.	.	2g\	Qu-	2g\	Qu-	2b\	Qu-	.
=29-	=29-	=29-	=29-	=29-	=29-	=29-	=29-	=29-	=29-	=29-	=29-	=29-	=29-
0r	.	0r	.	0r	.	1ryy	2.f\	-ia	1a	-ia	1a	-ia	1ryy
.	.	.	.	.	.	.	4e\	.	.	.	.	.	.
=30-	=30-	=30-	=30-	=30-	=30-	=30-	=30-	=30-	=30-	=30-	=30-	=30-	=30-
!	!	!	!	!	!	!	!	!	!LO:TX:b:t=P:problem=# below	!	!	!	!
.	.	.	.	.	.	1ryy	1d	fe-	1f#X	fe-	1a	fe-	1ryy
=31-	=31-	=31-	=31-	=31-	=31-	=31-	=31-	=31-	=31-	=31-	=31-	=31-	=31-
2r	.	2r	.	2r	.	1ryy	2G/	-cit	2g\	-cit	2b\	-cit	1ryy
2g\	mi-	2g\	Mi-	2b\	mi-	.	2r	.	2r	.	2r	.	.
=32-	=32-	=32-	=32-	=32-	=32-	=32-	=32-	=32-	=32-	=32-	=32-	=32-	=32-
!	!	!	!	!	!	!	!	!	!	!	!LO:N:vis=0	!	!
2c/	-hi	2g\	-chi	2cc\	-hi	1ryy	1r	.	1r	.	1r	.	1ryy
!	!	!LO:TX:b:t=P:problem=# below	!	!	!	!	!	!	!	!	!	!	!
2d\	mag-	2f#X\	mag-	2a\	mag-	.	.	.	.	.	.	.	.
=33-	=33-	=33-	=33-	=33-	=33-	=33-	=33-	=33-	=33-	=33-	=33-	=33-	=33-
2G/	-na	2g\	-na	2b\	-na,	1ryy	2r	.	2r	.	2r	.	1ryy
2r	.	2r	.	2r	.	.	2G/	mi-	2g\	mi-	2b\	mi-	.
=34-	=34-	=34-	=34-	=34-	=34-	=34-	=34-	=34-	=34-	=34-	=34-	=34-	=34-
1r	.	1r	.	1r	.	1ryy	2c/	-chi	2e/	-hi	2g/	-chi	1ryy
!	!	!	!	!	!	!	!	!	!	!	!LO:TX:b:t=P:problem=# below	!	!
.	.	.	.	.	.	.	2d\	ma-	2d/	ma-	2f#X/	ma-	.
=35-	=35-	=35-	=35-	=35-	=35-	=35-	=35-	=35-	=35-	=35-	=35-	=35-	=35-
2r	.	2r	.	2r	.	1ryy	2G/	-gna	2g\	-gna	2g/	-gna,	1ryy
!	!	!LO:TX:b:t=P:problem=# below	!	!	!	!	!	!	!	!	!	!	!
2d\	qui	2f#X\	qui	2dd\	qui	.	2r	.	2r	.	2r	.	.
=36-	=36-	=36-	=36-	=36-	=36-	=36-	=36-	=36-	=36-	=36-	=36-	=36-	=36-
!	!	!	!	!	!	!	!	!	!	!	!LO:N:vis=0	!	!
!	!	!	!	!	!	!	!	!	!	!	!LO:TX:t=P:problem=w źródle błędnie 0r	!	!
2G/	po-	2g\	Po-	2dd\	po-	1ryy	1r	.	1r	.	1r	.	1ryy
2c/	-tens	2g\	-tens	2cc\	-tens	.	.	.	.	.	.	.	.
=37-	=37-	=37-	=37-	=37-	=37-	=37-	=37-	=37-	=37-	=37-	=37-	=37-	=37-
2G/	eſt	2g\	eſt	2b\	eſt,	1ryy	2r	.	2r	.	2r	.	1ryy
*	*	*	*	*	*	*	*custos:e	*	*	*	*	*	*
2r	.	2r	.	2r	.	.	2g\	qui	2g\	qui	2b\	qui	.
!	!	!	!	!	!	!	!LO:PB:g=original	!	!	!	!	!	!
=38-	=38-	=38-	=38-	=38-	=38-	=38-	=38-	=38-	=38-	=38-	=38-	=38-	=38-
1r	.	1r	.	1r	.	1ryy	2e\	Po-	2g\	po-	2cc\	po-	1ryy
.	.	.	.	.	.	.	2d\	-tens	4a\	-tens	2dd\	-tenſ	.
.	.	.	.	.	.	.	.	.	4b\	.	.	.	.
=39-	=39-	=39-	=39-	=39-	=39-	=39-	=39-	=39-	=39-	=39-	=39-	=39-	=39-
*custos:g	*	*custos:g	*	*	*	*	*	*	*	*	*	*	*
2r	.	2r	.	2r	.	1ryy	2c/	eſt	2cc\	eſt	2ee\	eſt,	1ryy
!LO:LB:g=original	!	!LO:LB:g=original	!	!	!	!	!	!	!	!	!	!	!
2g\	et	2g\	(et)	2b\	et	.	2r	.	2r	.	2r	.	.
=40-	=40-	=40-	=40-	=40-	=40-	=40-	=40-	=40-	=40-	=40-	=40-	=40-	=40-
2g\	ſan-	2g\	san-	2b\	ſan-	1ryy	0r	.	0r	.	0r	.	1ryy
2f\	-ctum	2a\	-ctum	2a\	-ctu(m)	.	.	.	.	.	.	.	.
=41-	=41-	=41-	=41-	=41-	=41-	=41-	=41-	=41-	=41-	=41-	=41-	=41-	=41-
2g\	no-	2g\	no-	2b\	no-	1ryy	.	.	.	.	.	.	1ryy
2c/	-men	2g\	-men	2cc\	-men	.	.	.	.	.	.	.	.
=42-	=42-	=42-	=42-	=42-	=42-	=42-	=42-	=42-	=42-	=42-	=42-	=42-	=42-
*	*	*	*	*custos:b	*	*	*	*	*	*	*	*	*
!	!	!LO:TX:b:t=P:problem=# below	!	!	!	!	!	!	!	!	!	!	!
1d	e-	1f#X	e-	1a	e-	1ryy	1r	.	1r	.	1r	.	1ryy
!	!	!	!	!LO:LB:g=original	!	!	!	!	!	!	!	!	!
=43-	=43-	=43-	=43-	=43-	=43-	=43-	=43-	=43-	=43-	=43-	=43-	=43-	=43-
2G/	-ius	2g\	-ius	2b\	-ius,	1ryy	2r	.	2r	.	2r	.	1ryy
*	*	*	*	*	*	*	*	*	*custos:g	*	*	*	*
2r	.	2r	.	2r	.	.	2g\	et	2g\	et	2b\	et	.
!	!	!	!	!	!	!	!	!	!LO:LB:g=original	!	!	!	!
=44-	=44-	=44-	=44-	=44-	=44-	=44-	=44-	=44-	=44-	=44-	=44-	=44-	=44-
0r	.	0r	.	0r	.	1ryy	2g\	San-	2g\	san-	2b\	ſan-	1ryy
.	.	.	.	.	.	.	2g\	-ctum	2g\	-ctum	2b\	-ktum	.
=45-	=45-	=45-	=45-	=45-	=45-	=45-	=45-	=45-	=45-	=45-	=45-	=45-	=45-
.	.	.	.	.	.	1ryy	2c/	no-	2g\	no-	2cc\	no-	1ryy
.	.	.	.	.	.	.	2c/	-men	2g\	-men	2cc\	-men	.
=46-	=46-	=46-	=46-	=46-	=46-	=46-	=46-	=46-	=46-	=46-	=46-	=46-	=46-
!	!	!	!	!	!	!	!	!	!LO:TX:b:t=P:problem=# below	!	!	!	!
1r	.	2r	.	1r	.	1ryy	1d	e-	1f#X	e-	1a	e-	1ryy
.	.	2g\	(et)	.	.	.	.	.	.	.	.	.	.
=47-	=47-	=47-	=47-	=47-	=47-	=47-	=47-	=47-	=47-	=47-	=47-	=47-	=47-
2r	.	1d	san-	2r	.	1ryy	2G/	-ius	2g,<\	-ius	2b\	-iuſ	1ryy
2g\	et	.	.	2b\	et	.	2G/	et	2g\	et	2b\	et	.
=48-	=48-	=48-	=48-	=48-	=48-	=48-	=48-	=48-	=48-	=48-	=48-	=48-	=48-
*	*	*	*	*	*	*	*	*	*	*	*custos:cc	*	*
!	!	!	!	!	!	!	!	!	!	!	!LO:SIC:b:v:t=custos -ctum	!	!
4g\	ſan-	1g	-ctum	1b	ſan-	1ryy	1G	san-	1g	san-	1dd	ſan-	1ryy
4f\	.	.	.	.	.	.	.	.	.	.	.	.	.
4e\	.	.	.	.	.	.	.	.	.	.	.	.	.
4d\	.	.	.	.	.	.	.	.	.	.	.	.	.
!	!	!	!	!	!	!	!	!	!	!	!LO:PB:g=original	!	!
=49-	=49-	=49-	=49-	=49-	=49-	=49-	=49-	=49-	=49-	=49-	=49-	=49-	=49-
1c	-ctum	0c	no-	2g,</	-ctum	1ryy	1c	-ctum	1g	-ctum	1cc	-ctum	1ryy
.	.	.	.	1cc\	no-	.	.	.	.	.	.	.	.
=50-	=50-	=50-	=50-	=50-	=50-	=50-	=50-	=50-	=50-	=50-	=50-	=50-	=50-
1f	no-	.	.	.	.	1ryy	4F/	no-	1a	no-	1.cc	no-	1ryy
.	.	.	.	.	.	.	4G/	.	.	.	.	.	.
.	.	.	.	2a,<\	-men	.	4A/	.	.	.	.	.	.
.	.	.	.	.	.	.	4B/	.	.	.	.	.	.
=51-	=51-	=51-	=51-	=51-	=51-	=51-	=51-	=51-	=51-	=51-	=51-	=51-	=51-
4c/	-men	1g	-men	2.cc\	e-	1ryy	1c	-men	2g,<\	-men	.	.	1ryy
4d\	.	.	.	.	.	.	.	.	.	.	.	.	.
4e\	.	.	.	.	.	.	.	.	1g\	e-	2g,</	-men	.
4f\	.	.	.	8b\L	.	.	.	.	.	.	.	.	.
.	.	.	.	8a\J	.	.	.	.	.	.	.	.	.
=52-	=52-	=52-	=52-	=52-	=52-	=52-	=52-	=52-	=52-	=52-	=52-	=52-	=52-
*	*	*	*	*lig	*	*	*	*	*	*	*	*	*
2.g\	e-	0d	e-	1b	.	1ryy	4G/	e-	.	.	2.dd\	e-	1ryy
.	.	.	.	.	.	.	4A/	.	.	.	.	.	.
.	.	.	.	.	.	.	4B/	.	4fny\	.	.	.	.
8f\L	.	.	.	.	.	.	4c/	.	4e/	.	8cc\L	.	.
8e\J	.	.	.	.	.	.	.	.	.	.	8b\J	.	.
=53-	=53-	=53-	=53-	=53-	=53-	=53-	=53-	=53-	=53-	=53-	=53-	=53-	=53-
!	!	!	!	!	!	!	!	!	!LO:TX:b:t=P:problem=# below	!	!	!	!
1d	.	.	.	1a	.	1ryy	1d	.	1f#X	.	1a	.	1ryy
*	*	*	*	*Xlig	*	*	*	*	*	*	*	*	*
=54-	=54-	=54-	=54-	=54-	=54-	=54-	=54-	=54-	=54-	=54-	=54-	=54-	=54-
*custos:c	*	*	*	*	*	*	*	*	*	*	*	*	*
!	!	!	!	!	!	!	!	!	!	!	!LO:TX:t=P:problem=kreska pseudotaktowa	!	!
1gl;;	-ius	1dl;;	-ius!	1gl;;	-ius;	1ryy	1Gl;;	-ius	1gl;;	-ius;	1bl;;	-iuſ;	1ryy
!	!	!	!	!	!	!	!LO:LB:g=original	!	!	!	!	!	!
=55||	=55||	=55||	=55||	=55||	=55||	=55||	=55||	=55||	=55||	=55||	=55||	=55||	=55||
0r	.	0r	.	0r	.	1ryy	1G	Fe-	1g	Fe-	1b	Fe-	1ryy
=56-	=56-	=56-	=56-	=56-	=56-	=56-	=56-	=56-	=56-	=56-	=56-	=56-	=56-
.	.	.	.	.	.	1ryy	2c/	-cit	2g\	-cit	2cc\	-cit	1ryy
.	.	.	.	.	.	.	2B/	po-	2g\	po-	2dd\	po-	.
=57-	=57-	=57-	=57-	=57-	=57-	=57-	=57-	=57-	=57-	=57-	=57-	=57-	=57-
1r	.	1r	.	1r	.	1ryy	2c/	-ten-	2g\	-ten-	2cc\	-ten-	1ryy
.	.	.	.	.	.	.	2A/	-ci-	4e/	-ti-	2cc\	-ti-	.
.	.	.	.	.	.	.	.	.	4f\	.	.	.	.
=58-	=58-	=58-	=58-	=58-	=58-	=58-	=58-	=58-	=58-	=58-	=58-	=58-	=58-
2r	.	2r	.	2r	.	1ryy	2G/	-a	2g\	-am	2b\	-am	1ryy
2c/	Fe-	2g\	Fe-	2cc\	Fe-	.	2r	.	2r	.	2r	.	.
=59-	=59-	=59-	=59-	=59-	=59-	=59-	=59-	=59-	=59-	=59-	=59-	=59-	=59-
2f\	-cit	2f\	-cit	2cc\	-cit	1ryy	0r	.	0r	.	0r	.	1ryy
2e\	Po-	2g\	Po-	2cc\	po-	.	.	.	.	.	.	.	.
=60-	=60-	=60-	=60-	=60-	=60-	=60-	=60-	=60-	=60-	=60-	=60-	=60-	=60-
2f\	-ten-	2f\	-ten-	2cc\	-ten-	1ryy	.	.	.	.	.	.	1ryy
2d\	-ti-	2f\	-ci-	2dd\	-ti-	.	.	.	.	.	.	.	.
=61-	=61-	=61-	=61-	=61-	=61-	=61-	=61-	=61-	=61-	=61-	=61-	=61-	=61-
*	*	*custos:g	*	*	*	*	*	*	*	*	*	*	*
2c/	-am	2e/	-am	2g/	-am	1ryy	2r	.	2r	.	2r	.	1ryy
*	*	*	*	*	*	*	*	*	*custos:g	*	*	*	*
!	!	!LO:LB:g=original	!	!	!	!	!	!	!	!	!	!	!
2g\	in	2g\	in	2b\	in	.	2G/	in	2g\	in	2b\	in	.
!	!	!	!	!	!	!	!	!	!LO:LB:g=original	!	!	!	!
=62-	=62-	=62-	=62-	=62-	=62-	=62-	=62-	=62-	=62-	=62-	=62-	=62-	=62-
4c/	bra-	1g	bra-	1g	bra-	1ryy	1c	bra-	1g	bra-	1cc	bra-	1ryy
4d\	.	.	.	.	.	.	.	.	.	.	.	.	.
4e\	.	.	.	.	.	.	.	.	.	.	.	.	.
4f\	.	.	.	.	.	.	.	.	.	.	.	.	.
=63-	=63-	=63-	=63-	=63-	=63-	=63-	=63-	=63-	=63-	=63-	=63-	=63-	=63-
*	*	*	*	*custos:b	*	*	*	*	*	*	*	*	*
!	!	!	!	!LO:SIC:b:v:t=custos -o	!	!	!	!	!	!	!	!	!
2g\	-chi-	2g\	-chi-	2g/	-hi-	1ryy	2G/	-chi-	2g\	-hi-	2b\	-chi-	1ryy
!	!	!	!	!LO:LB:g=original	!	!	!	!	!	!	!	!	!
2g\	-o	2d/	-o	2b\	-o	.	2G/	-o	2.g\	-o	2b\	-o	.
=64-	=64-	=64-	=64-	=64-	=64-	=64-	=64-	=64-	=64-	=64-	=64-	=64-	=64-
1d	ſu-	1d	Su-	2.dd\	su-	1ryy	1d	Tu-	.	.	1a	ſu-	1ryy
.	.	.	.	.	.	.	.	.	8f\L	.	.	.	.
.	.	.	.	.	.	.	.	.	8e\J	.	.	.	.
!	!	!	!	!	!	!	!	!	!LO:TX:b:t=P:problem=# below	!	!	!	!
.	.	.	.	.	.	.	.	.	2f#X\	su-	.	.	.
.	.	.	.	4cc\	.	.	.	.	.	.	.	.	.
=65-	=65-	=65-	=65-	=65-	=65-	=65-	=65-	=65-	=65-	=65-	=65-	=65-	=65-
1g	o	1d	o	1b	-o,	1ryy	2G/	-o	2g\	-o	2b\	-o	1ryy
.	.	.	.	.	.	.	2G/	dis-	2g\	dis-	2b\	diſ-	.
=66-	=66-	=66-	=66-	=66-	=66-	=66-	=66-	=66-	=66-	=66-	=66-	=66-	=66-
1r	.	1r	.	1r	.	1ryy	2d\	-per-	2f#X\	-per-	2a\	-per-	1ryy
.	.	.	.	.	.	.	2G/	-sit	2g\	-sit	2b\	-ſit	.
=67-	=67-	=67-	=67-	=67-	=67-	=67-	=67-	=67-	=67-	=67-	=67-	=67-	=67-
2r	.	2r	.	2r	.	1ryy	0r	.	0r	.	0r	.	1ryy
2g\	ſu-	2g\	su-	2b\	su-	.	.	.	.	.	.	.	.
=68-	=68-	=68-	=68-	=68-	=68-	=68-	=68-	=68-	=68-	=68-	=68-	=68-	=68-
!	!	!LO:TX:b:t=P:problem=# below	!	!	!	!	!	!	!	!	!	!	!
2d\	-per-	2f#X\	-per-	2a\	-per-	1ryy	.	.	.	.	.	.	1ryy
2g\	-bos	2g\	-bos	2b\	-bos,	.	.	.	.	.	.	.	.
=69-	=69-	=69-	=69-	=69-	=69-	=69-	=69-	=69-	=69-	=69-	=69-	=69-	=69-
0r	.	0r	.	0r	.	1ryy	2r	.	2r	.	2r	.	1ryy
*	*	*	*	*	*	*	*	*	*	*	*custos:cc	*	*
.	.	.	.	.	.	.	2c\	dis-	2g\	dis-	2cc\	dÿſ-	.
!	!	!	!	!	!	!	!	!	!	!	!LO:LB:g=original	!	!
=70-	=70-	=70-	=70-	=70-	=70-	=70-	=70-	=70-	=70-	=70-	=70-	=70-	=70-
.	.	.	.	.	.	1ryy	2A/	-per-	2a\	-per-	2cc\	-per-	1ryy
.	.	.	.	.	.	.	2c/	-sit	2g\	-sit	2cc\	-ſit	.
=71-	=71-	=71-	=71-	=71-	=71-	=71-	=71-	=71-	=71-	=71-	=71-	=71-	=71-
2r	.	2r	.	2r	.	1ryy	0r	.	0r	.	0r	.	1ryy
2c/	su-	2g\	Su-	2cc\	su-	.	.	.	.	.	.	.	.
=72-	=72-	=72-	=72-	=72-	=72-	=72-	=72-	=72-	=72-	=72-	=72-	=72-	=72-
2f\	-per-	2a\	-per-	2cc\	-per-	1ryy	.	.	.	.	.	.	1ryy
*custos:g	*	*	*	*	*	*	*	*	*	*	*	*	*
2c/	-bos	2g\	-bos	2cc\	-bos	.	.	.	.	.	.	.	.
!LO:LB:g=original	!	!	!	!	!	!	!	!	!	!	!	!	!
=73-	=73-	=73-	=73-	=73-	=73-	=73-	=73-	=73-	=73-	=73-	=73-	=73-	=73-
1.g	men-	0g	men-	1.b	men-	1ryy	1.G	men-	1g	men-	1dd	men-	1ryy
=74-	=74-	=74-	=74-	=74-	=74-	=74-	=74-	=74-	=74-	=74-	=74-	=74-	=74-
.	.	.	.	.	.	1ryy	.	.	1g	-te	1b	-te	1ryy
*	*	*	*	*	*	*	*custos:c	*	*	*	*	*	*
2g\	-te	.	.	2b\	-te	.	2G/	-te	.	.	.	.	.
!	!	!	!	!	!	!	!LO:LB:g=original	!	!	!	!	!	!
=75-	=75-	=75-	=75-	=75-	=75-	=75-	=75-	=75-	=75-	=75-	=75-	=75-	=75-
4c/	cor-	2e/	-te	4g/	cor-	1ryy	1c	cor-	1g	cor-	1cc	kor-	1ryy
4d\	.	.	.	4a\	.	.	.	.	.	.	.	.	.
4e\	.	1g\	cor-	4b\	.	.	.	.	.	.	.	.	.
4f\	.	.	.	4cc\	.	.	.	.	.	.	.	.	.
=76-	=76-	=76-	=76-	=76-	=76-	=76-	=76-	=76-	=76-	=76-	=76-	=76-	=76-
2.g\	-dis	.	.	1.dd	-dis	1ryy	4G/	-di	1g	-dis	1b	-dÿſ	1ryy
.	.	.	.	.	.	.	4A/	.	.	.	.	.	.
.	.	2d/	-dis	.	.	.	4B/	.	.	.	.	.	.
8f\L	.	.	.	.	.	.	4c/	.	.	.	.	.	.
8e\J	.	.	.	.	.	.	.	.	.	.	.	.	.
=77-	=77-	=77-	=77-	=77-	=77-	=77-	=77-	=77-	=77-	=77-	=77-	=77-	=77-
1d	su-	1d	su-	.	.	1ryy	1d	Su-	1a	ſu-	1a	ſu-	1ryy
.	.	.	.	2dd\	ſu-	.	.	.	.	.	.	.	.
=78-	=78-	=78-	=78-	=78-	=78-	=78-	=78-	=78-	=78-	=78-	=78-	=78-	=78-
*	*	*	*	*	*	*	*	*	*custos:g	*	*	*	*
!LO:TX:t=P:problem=podwójna kreska pseudotaktowa	!	!	!	!	!	!	!	!	!	!	!LO:TX:t=P:problem=kreska pseudotaktowa	!	!
1gl;	-i	1dl;;	-i;	1bl;;	-i;	1ryy	1Gl;;	-i	1gl;;	-i;	1bl;;	-i?	1ryy
!	!	!	!	!	!	!	!	!	!LO:LB:g=original	!	!	!	!
=79||	=79||	=79||	=79||	=79||	=79||	=79||	=79||	=79||	=79||	=79||	=79||	=79||	=79||
0r	.	0r	.	0r	.	1ryy	1G	E-	1g	E-	1b	E-	1ryy
=80-	=80-	=80-	=80-	=80-	=80-	=80-	=80-	=80-	=80-	=80-	=80-	=80-	=80-
.	.	.	.	.	.	1ryy	2G/	-su-	2g\	-su-	2b\	-ſu-	1ryy
.	.	.	.	.	.	.	2G/	-ri-	2g\	-ri-	2b\	-ri-	.
=81-	=81-	=81-	=81-	=81-	=81-	=81-	=81-	=81-	=81-	=81-	=81-	=81-	=81-
1r	.	1r	.	1r	.	1ryy	1c	-en-	1g	-en-	1cc	-en-	1ryy
=82-	=82-	=82-	=82-	=82-	=82-	=82-	=82-	=82-	=82-	=82-	=82-	=82-	=82-
2r	.	2r	.	2r	.	1ryy	2G/	-tes	2g\	-tes	2b\	-teſ	1ryy
*	*	*	*	*custos:cc	*	*	*	*	*	*	*	*	*
2g\	E-	2g\	e-	2b\	E-	.	2r	.	2r	.	2r	.	.
!	!	!	!	!LO:LB:g=original	!	!	!	!	!	!	!	!	!
=83-	=83-	=83-	=83-	=83-	=83-	=83-	=83-	=83-	=83-	=83-	=83-	=83-	=83-
2c/	-ſu-	2g\	-su-	2cc\	-su-	1ryy	0r	.	0r	.	0r	.	1ryy
*	*	*custos:a	*	*	*	*	*	*	*	*	*	*	*
2c/	-ri-	2g\	-ri-	2cc\	-ri-	.	.	.	.	.	.	.	.
!	!	!LO:LB:g=original	!	!	!	!	!	!	!	!	!	!	!
=84-	=84-	=84-	=84-	=84-	=84-	=84-	=84-	=84-	=84-	=84-	=84-	=84-	=84-
1f	-en-	1a	-en-	1cc	-en-	1ryy	.	.	.	.	.	.	1ryy
=85-	=85-	=85-	=85-	=85-	=85-	=85-	=85-	=85-	=85-	=85-	=85-	=85-	=85-
2c/	-tes	2g\	-tes	2cc\	-tes	1ryy	2r	.	2r	.	2r	.	1ryy
2r	.	2r	.	2r	.	.	2c/	im-	2g\	im-	2cc\	im-	.
=86-	=86-	=86-	=86-	=86-	=86-	=86-	=86-	=86-	=86-	=86-	=86-	=86-	=86-
0r	.	0r	.	0r	.	1ryy	2.f\	-ple-	2.a\	-ple-	2cc\	-ple-	1ryy
.	.	.	.	.	.	.	.	.	.	.	2.cc\	-wit	.
.	.	.	.	.	.	.	4f\	-wit	4a\	-uit	.	.	.
=87-	=87-	=87-	=87-	=87-	=87-	=87-	=87-	=87-	=87-	=87-	=87-	=87-	=87-
.	.	.	.	.	.	1ryy	1g	bo-	1g	bo-	.	.	1ryy
.	.	.	.	.	.	.	.	.	.	.	8b\L	.	.
.	.	.	.	.	.	.	.	.	.	.	8a\J	.	.
.	.	.	.	.	.	.	.	.	.	.	2b\	bo-	.
=88-	=88-	=88-	=88-	=88-	=88-	=88-	=88-	=88-	=88-	=88-	=88-	=88-	=88-
2r	.	2r	.	2r	.	1ryy	2c/	-nis	2g\	-nis	2cc\	-niſ	1ryy
2g\	et	2g\	(et)	2b\	et	.	2r	.	2r	.	2r	.	.
=89-	=89-	=89-	=89-	=89-	=89-	=89-	=89-	=89-	=89-	=89-	=89-	=89-	=89-
2.c/	di-	2.g\	di-	2.cc\	di-	1ryy	00r	.	00r	.	00r	.	1ryy
4c/	-ui-	4g\	-ui-	4cc\	-ui-	.	.	.	.	.	.	.	.
=90-	=90-	=90-	=90-	=90-	=90-	=90-	=90-	=90-	=90-	=90-	=90-	=90-	=90-
2g\	-tes	2g\	-tes	2b\	-tes	1ryy	.	.	.	.	.	.	1ryy
*custos:c	*	*	*	*	*	*	*	*	*	*	*	*	*
2g\	di-	2g\	di-	2dd\	di-	.	.	.	.	.	.	.	.
!LO:LB:g=original	!	!	!	!	!	!	!	!	!	!	!	!	!
=91-	=91-	=91-	=91-	=91-	=91-	=91-	=91-	=91-	=91-	=91-	=91-	=91-	=91-
1c	-mi-	1g	-mi-	1cc	-mi-	1ryy	.	.	.	.	.	.	1ryy
=92-	=92-	=92-	=92-	=92-	=92-	=92-	=92-	=92-	=92-	=92-	=92-	=92-	=92-
2f\	-ſit	2f\	-sit	2cc\	-sit	1ryy	.	.	.	.	.	.	1ryy
2d\	i-	2f\	i-	2a\	i-	.	.	.	.	.	.	.	.
=93-	=93-	=93-	=93-	=93-	=93-	=93-	=93-	=93-	=93-	=93-	=93-	=93-	=93-
1A	-na-	1e	-na-	1a	-na-	1ryy	1r	.	1r	.	1r	.	1ryy
=94-	=94-	=94-	=94-	=94-	=94-	=94-	=94-	=94-	=94-	=94-	=94-	=94-	=94-
!	!	!LO:TX:b:t=P:problem=# below	!	!	!	!	!	!	!	!	!	!	!
2d\	-nes	2f#X\	-nes	2a\	-nes	1ryy	2r	.	2r	.	2r	.	1ryy
2r	.	2r	.	2r	.	.	2G/	(et)	2g\	et	2b\	et	.
=95-	=95-	=95-	=95-	=95-	=95-	=95-	=95-	=95-	=95-	=95-	=95-	=95-	=95-
*	*	*	*	*	*	*	*	*	*	*	*custos:cc	*	*
!	!	!	!	!	!	!	!	!	!	!	!LO:TX:t=P:problem=kropka w kolejnym systemie	!	!
00r	.	00r	.	00r	.	1ryy	2.c\	di-	2.g\	di-	2.cc\	dÿ-	1ryy
*	*	*	*	*	*	*	*custos:g	*	*	*	*	*	*
!	!	!	!	!	!	!	!	!	!	!	!LO:LB:g=original	!	!
.	.	.	.	.	.	.	4c/	-ui-	4g\	-ui-	4cc\	-vi-	.
!	!	!	!	!	!	!	!LO:LB:g=original	!	!	!	!	!	!
=96-	=96-	=96-	=96-	=96-	=96-	=96-	=96-	=96-	=96-	=96-	=96-	=96-	=96-
.	.	.	.	.	.	1ryy	2G/	-tes	2g\	-tes	2b,<\	-teſ	1ryy
.	.	.	.	.	.	.	2c/	di-	2g\	di-	2cc\	dÿ-	.
=97-	=97-	=97-	=97-	=97-	=97-	=97-	=97-	=97-	=97-	=97-	=97-	=97-	=97-
.	.	.	.	.	.	1ryy	1g	-mi-	1g	-mi-	1b	-mi-	1ryy
=98-	=98-	=98-	=98-	=98-	=98-	=98-	=98-	=98-	=98-	=98-	=98-	=98-	=98-
.	.	.	.	.	.	1ryy	2f\	-sit	2a\	-sit	2cc\	-ſÿt	1ryy
.	.	.	.	.	.	.	2d\	i-	2a\	i-	2.dd\	i-	.
=99-	=99-	=99-	=99-	=99-	=99-	=99-	=99-	=99-	=99-	=99-	=99-	=99-	=99-
1r	.	1r	.	1r	.	1ryy	1A	-na	1a	-na-	.	.	1ryy
.	.	.	.	.	.	.	.	.	.	.	8cc\L	.	.
.	.	.	.	.	.	.	.	.	.	.	8b\J	.	.
!	!	!	!	!	!	!	!	!	!	!	!LO:TX:b:t=P:problem=# below	!	!
.	.	.	.	.	.	.	.	.	.	.	2cc#X\	-na-	.
=100-	=100-	=100-	=100-	=100-	=100-	=100-	=100-	=100-	=100-	=100-	=100-	=100-	=100-
2r	.	2r	.	2r	.	1ryy	2d\	-nes	2a\	-nes	2dd\	-neſ,	1ryy
*	*	*	*	*	*	*	*	*	*custos:g	*	*	*	*
2d\	i-	2fny\	i-	2a\	i-	.	2r	.	2r	.	2r	.	.
!	!	!	!	!	!	!	!	!	!LO:LB:g=original	!	!	!	!
=101-	=101-	=101-	=101-	=101-	=101-	=101-	=101-	=101-	=101-	=101-	=101-	=101-	=101-
1A	-na-	1e	-na-	1a	-na-	1ryy	1r	.	1r	.	1r	.	1ryy
=102-	=102-	=102-	=102-	=102-	=102-	=102-	=102-	=102-	=102-	=102-	=102-	=102-	=102-
!	!	!LO:TX:b:t=P:problem=# below	!	!	!	!	!	!	!	!	!	!	!
2d\	-nes	2f#X\	-nes	2a\	-nes	1ryy	2r	.	2r	.	2r	.	1ryy
2r	.	2r	.	2r	.	.	2G/	i-	2g\	i-	2b\	i-	.
=103-	=103-	=103-	=103-	=103-	=103-	=103-	=103-	=103-	=103-	=103-	=103-	=103-	=103-
1r	.	1r	.	1r	.	1ryy	1c	-na-	1g	-na-	1ccny	-na-	1ryy
=104-	=104-	=104-	=104-	=104-	=104-	=104-	=104-	=104-	=104-	=104-	=104-	=104-	=104-
2r	.	2r	.	2r	.	1ryy	2G/	-nes	2g\	-nes	2b\	-neſ,	1ryy
2c/	i-	2g\	i-	1cc\	i-	.	2r	.	2r	.	2r	.	.
=105-	=105-	=105-	=105-	=105-	=105-	=105-	=105-	=105-	=105-	=105-	=105-	=105-	=105-
1g	-na-	1g	-na-	.	.	1ryy	1r	.	1r	.	1r	.	1ryy
.	.	.	.	2b\	-na-	.	.	.	.	.	.	.	.
=106-	=106-	=106-	=106-	=106-	=106-	=106-	=106-	=106-	=106-	=106-	=106-	=106-	=106-
2c/	-nes	2g\	-nes	2cc\	-nes	1ryy	2r	.	2r	.	2r	.	1ryy
*	*	*	*	*custos:dd	*	*	*	*	*	*	*	*	*
2r	.	2r	.	2r	.	.	2c/	i-	2g\	i-	2cc\	i-	.
!	!	!	!	!LO:LB:g=original	!	!	!	!	!	!	!	!	!
=107-	=107-	=107-	=107-	=107-	=107-	=107-	=107-	=107-	=107-	=107-	=107-	=107-	=107-
1r	.	1r	.	1r	.	1ryy	4F/	-na-	1a	-na-	1cc	-na-	1ryy
.	.	.	.	.	.	.	4G/	.	.	.	.	.	.
.	.	.	.	.	.	.	4A/	.	.	.	.	.	.
.	.	.	.	.	.	.	4B/	.	.	.	.	.	.
=108-	=108-	=108-	=108-	=108-	=108-	=108-	=108-	=108-	=108-	=108-	=108-	=108-	=108-
2r	.	2r	.	2r	.	1ryy	2c/	-nes	2g\	-nes	2cc\	-neſ,	1ryy
2d\	i-	2a\	i-	1dd\	i-	.	2r	.	2r	.	2r	.	.
=109-	=109-	=109-	=109-	=109-	=109-	=109-	=109-	=109-	=109-	=109-	=109-	=109-	=109-
*	*	*custos:a	*	*	*	*	*	*	*	*	*	*	*
1A	-na-	1a	-na-	.	.	1ryy	1r	.	1r	.	1r	.	1ryy
.	.	.	.	2cc#X\	-na-	.	.	.	.	.	.	.	.
!	!	!LO:LB:g=original	!	!	!	!	!	!	!	!	!	!	!
=110-	=110-	=110-	=110-	=110-	=110-	=110-	=110-	=110-	=110-	=110-	=110-	=110-	=110-
2d\	-nes	2a\	-nes	2dd\	-nes	1ryy	2r	.	2r	.	2r	.	1ryy
2r	.	2r	.	2r	.	.	2G/	i-	2g\	i-	2dd\	i-	.
=111-	=111-	=111-	=111-	=111-	=111-	=111-	=111-	=111-	=111-	=111-	=111-	=111-	=111-
1r	.	1r	.	1r	.	1ryy	1c	-na-	1a	-na-	1dd	-na-	1ryy
=112-	=112-	=112-	=112-	=112-	=112-	=112-	=112-	=112-	=112-	=112-	=112-	=112-	=112-
2r	.	2r	.	2r	.	1ryy	2G/	-nes	2g\	-nes	2dd,<\	-neſ,	1ryy
2g\	di-	2g\	di-	2b\	di-	.	2G/	di-	2g\	di-	2b\	dÿ-	.
=113-	=113-	=113-	=113-	=113-	=113-	=113-	=113-	=113-	=113-	=113-	=113-	=113-	=113-
*	*	*	*	*	*	*	*custos:c	*	*	*	*	*	*
1g	-mi-	1d	-mi-	1b	-mi-	1ryy	1G	-mi-	1g	-mi-	1b	-mi-	1ryy
!	!	!	!	!	!	!	!LO:LB:g=original	!	!	!	!	!	!
=114-	=114-	=114-	=114-	=114-	=114-	=114-	=114-	=114-	=114-	=114-	=114-	=114-	=114-
2c/	-ſit	2g\	-sit	2g/	-sit	1ryy	2c\	-sit	2g\	-sit	2cc,<\	-ſyt	1ryy
2g\	i-	2d/	i-	2dd\	i-	.	2G/	i-	2g\	i-	1dd\	i-	.
=115-	=115-	=115-	=115-	=115-	=115-	=115-	=115-	=115-	=115-	=115-	=115-	=115-	=115-
1d	-na-	1d	na-	1dd	-na-	1ryy	1d	-na-	1a	-na-	.	.	1ryy
.	.	.	.	.	.	.	.	.	.	.	2a\	-na-	.
=116-	=116-	=116-	=116-	=116-	=116-	=116-	=116-	=116-	=116-	=116-	=116-	=116-	=116-
1gl;;	-nes	1dl;;	-nes	1bl;;	-nes;	1ryy	1Gl;;	-nes	1gl;;	-nes;	1ddl;;	-neſ;	1ryy
!LO:PB:g=original	!	!	!	!	!	!	!	!	!	!	!LO:LB:g=original	!	!
=117||	=117||	=117||	=117||	=117||	=117||	=117||	=117||	=117||	=117||	=117||	=117||	=117||	=117||
0r	.	0r	.	0r	.	1ryy	1c	Si-	1g	Si-	1cc	Sÿ-	1ryy
=118-	=118-	=118-	=118-	=118-	=118-	=118-	=118-	=118-	=118-	=118-	=118-	=118-	=118-
.	.	.	.	.	.	1ryy	2g\	-cud	2g\	-cut	2b\	-kut	1ryy
.	.	.	.	.	.	.	2e\	lo-	2g\	lo-	2cc\	lo-	.
=119-	=119-	=119-	=119-	=119-	=119-	=119-	=119-	=119-	=119-	=119-	=119-	=119-	=119-
*	*	*	*	*	*	*	*	*	*custos:g	*	*	*	*
!	!	!	!	!	!	!	!	!	!LO:SIC:v:b:t=custos -tus	!	!	!	!
1r	.	1r	.	1r	.	1ryy	2f\	-cu-	2a\	-cu-	2a\	-ku-	1ryy
!	!	!	!	!	!	!	!	!	!LO:PB:g=original	!	!	!	!
.	.	.	.	.	.	.	2g\	-tus	2g\	-tus	2b\	-tuſ	.
=120-	=120-	=120-	=120-	=120-	=120-	=120-	=120-	=120-	=120-	=120-	=120-	=120-	=120-
2r	.	2r	.	2r	.	1ryy	2c/	eſt	2g\	eſt	2cc\	eſt	1ryy
2c/	Ad	2g\	Ad	2cc\	Ad	.	2r	.	2r	.	2r	.	.
=121-	=121-	=121-	=121-	=121-	=121-	=121-	=121-	=121-	=121-	=121-	=121-	=121-	=121-
2c/	Pat-	2g\	Pat-	2cc\	pat-	1ryy	0r	.	0r	.	0r	.	1ryy
2B/	-res	2g\	-res	2g/	-res	.	.	.	.	.	.	.	.
=122-	=122-	=122-	=122-	=122-	=122-	=122-	=122-	=122-	=122-	=122-	=122-	=122-	=122-
1A	nos-	2e/	noſ-	1a	nos-	1ryy	.	.	.	.	.	.	1ryy
.	.	2f\	.	.	.	.	.	.	.	.	.	.	.
=123-	=123-	=123-	=123-	=123-	=123-	=123-	=123-	=123-	=123-	=123-	=123-	=123-	=123-
1G	-tros	2g\	-tros	1b	-tros	1ryy	2r	.	2r	.	2r	.	1ryy
.	.	2r	.	.	.	.	1G/	A-	1b\	a-	1dd\	A-	.
=124-	=124-	=124-	=124-	=124-	=124-	=124-	=124-	=124-	=124-	=124-	=124-	=124-	=124-
1r	.	1r	.	1r	.	1ryy	.	.	.	.	.	.	1ryy
.	.	.	.	.	.	.	2c/	-bra-	2g\	-bra-	2cc\	-bra-	.
=125-	=125-	=125-	=125-	=125-	=125-	=125-	=125-	=125-	=125-	=125-	=125-	=125-	=125-
2r	.	2r	.	2r	.	1ryy	2c/	-ham	2g\	-ham	2cc\	-ham	1ryy
1c\	A-	2g\	A-	1cc\	a-	.	2r	.	2r	.	2r	.	.
=126-	=126-	=126-	=126-	=126-	=126-	=126-	=126-	=126-	=126-	=126-	=126-	=126-	=126-
.	.	1e	-bra-	.	.	1ryy	1r	.	1r	.	1r	.	1ryy
*	*	*	*	*custos:a	*	*	*	*	*	*	*	*	*
2A/	-bra-	.	.	2cc\	-bra-	.	.	.	.	.	.	.	.
!	!	!	!	!LO:LB:g=original	!	!	!	!	!	!	!	!	!
=127-	=127-	=127-	=127-	=127-	=127-	=127-	=127-	=127-	=127-	=127-	=127-	=127-	=127-
2A/	-ham	2e/	-ham	2a\	-ham	1ryy	2r	.	2r	.	2r	.	1ryy
2r	.	2r	.	2r	.	.	2G/	(et)	2g\	et	2b\	et	.
=128-	=128-	=128-	=128-	=128-	=128-	=128-	=128-	=128-	=128-	=128-	=128-	=128-	=128-
00r	.	00r	.	00r	.	1ryy	2.c/	Se-	2.g\	se-	2.cc\	ſe-	1ryy
.	.	.	.	.	.	.	4c/	-mi-	4g\	-mi-	4cc\	-mi-	.
=129-	=129-	=129-	=129-	=129-	=129-	=129-	=129-	=129-	=129-	=129-	=129-	=129-	=129-
.	.	.	.	.	.	1ryy	1B	-ni	1g	-ni	1dd	-ni	1ryy
=130-	=130-	=130-	=130-	=130-	=130-	=130-	=130-	=130-	=130-	=130-	=130-	=130-	=130-
.	.	.	.	.	.	1ryy	1A	e-	2e/	e-	1a	e-	1ryy
.	.	.	.	.	.	.	.	.	2f\	.	.	.	.
!	!	!	!	!	!	!	!LO:LB:g=original	!	!	!	!	!	!
=131-	=131-	=131-	=131-	=131-	=131-	=131-	=131-	=131-	=131-	=131-	=131-	=131-	=131-
.	.	.	.	.	.	1ryy	2G/	-ius	2g\	-ius	2b\	-iuſ	1ryy
.	.	.	.	.	.	.	2c/	in	2g\	in	2cc\	in	.
=132-	=132-	=132-	=132-	=132-	=132-	=132-	=132-	=132-	=132-	=132-	=132-	=132-	=132-
1r	.	1r	.	1r	.	1ryy	2F/	se-	2f\	se-	2a\	ſe-	1ryy
.	.	.	.	.	.	.	2G/	-cu-	2d/	-cu-	2g/	-ku-	.
=133-	=133-	=133-	=133-	=133-	=133-	=133-	=133-	=133-	=133-	=133-	=133-	=133-	=133-
2r	.	2r	.	2r	.	1ryy	2c/	-la	2e/	-la	2g/	-la	1ryy
2c/	in	2g\	in	2cc\	in	.	2r	.	2r	.	2r	.	.
=134-	=134-	=134-	=134-	=134-	=134-	=134-	=134-	=134-	=134-	=134-	=134-	=134-	=134-
*	*	*custos:g	*	*	*	*	*	*	*	*	*	*	*
2f\	sae-	2a\	se-	2cc\	se-	1ryy	1r	.	1r	.	1r	.	1ryy
!	!	!LO:PB:g=original	!	!	!	!	!	!	!	!	!	!	!
2g\	-cu-	2g\	-cu-	2b\	-cu-	.	.	.	.	.	.	.	.
=135-	=135-	=135-	=135-	=135-	=135-	=135-	=135-	=135-	=135-	=135-	=135-	=135-	=135-
2c/	-la	2g\	-la	2cc\	-la	1ryy	2r	.	2r	.	2r	.	1ryy
2r	.	2r	.	2r	.	.	2g\	in	2b\	in	2dd\	in	.
=136-	=136-	=136-	=136-	=136-	=136-	=136-	=136-	=136-	=136-	=136-	=136-	=136-	=136-
1r	.	1r	.	1r	.	1ryy	2c/	Se-	2cc\	se-	2ee\	ſe-	1ryy
.	.	.	.	.	.	.	2d\	-cu-	2a\	-cu-	2dd\	-ku-	.
=137-	=137-	=137-	=137-	=137-	=137-	=137-	=137-	=137-	=137-	=137-	=137-	=137-	=137-
*	*	*	*	*	*	*	*	*	*custos:g	*	*	*	*
2r	.	2r	.	2r	.	1ryy	2G/	-la	2b\	-la	2dd\	-la	1ryy
!	!	!	!	!	!	!	!	!	!LO:LB:g=original	!	!	!	!
2c/	in	2e/	i[n]	2cc\	in	.	2c/	in	2g\	in	2cc\	in	.
=138-	=138-	=138-	=138-	=138-	=138-	=138-	=138-	=138-	=138-	=138-	=138-	=138-	=138-
*	*	*	*	*	*	*	*	*	*	*	*custos:b	*	*
!	!	!	!	!	!	!	!	!	!	!	!LO:TX:t=P:problem=kropka w kolejnyms systemie	!	!
4c/	Se-	2f\	se-	1a	se-	1ryy	1F	se-	1a	se-	2.cc\	ſe-	1ryy
4d\	.	.	.	.	.	.	.	.	.	.	.	.	.
4e\	.	2c/	.	.	.	.	.	.	.	.	.	.	.
!	!	!	!	!	!	!	!	!	!	!	!LO:LB:g=original	!	!
4f\	.	.	.	.	.	.	.	.	.	.	8b\L	.	.
.	.	.	.	.	.	.	.	.	.	.	8a\J	.	.
=139-	=139-	=139-	=139-	=139-	=139-	=139-	=139-	=139-	=139-	=139-	=139-	=139-	=139-
2.g\	.	2g\	-cu-	1b	-cu-	1ryy	1G	-cu-	1g	-cu-	1b	-ku-	1ryy
.	.	2d/	.	.	.	.	.	.	.	.	.	.	.
4g\	-cu-	.	.	.	.	.	.	.	.	.	.	.	.
=140-	=140-	=140-	=140-	=140-	=140-	=140-	=140-	=140-	=140-	=140-	=140-	=140-	=140-
1cl;;	-la	1gl;;	-la	1gl;;	-la;	1ryy	1cl;;	-la	1gl;;	-la,	1ccl;;	-la?	1ryy
=141||	=141||	=141||	=141||	=141||	=141||	=141||	=141||	=141||	=141||	=141||	=141||	=141||	=141||
0r	.	0r	.	0r	.	1ryy	1.g	Si-	1.g	Si-	1.b	Sÿ-	1ryy
=142-	=142-	=142-	=142-	=142-	=142-	=142-	=142-	=142-	=142-	=142-	=142-	=142-	=142-
.	.	.	.	.	.	1ryy	.	.	.	.	.	.	1ryy
.	.	.	.	.	.	.	2g\	-cut	2g\	-cut	2b\	-kut	.
=143-	=143-	=143-	=143-	=143-	=143-	=143-	=143-	=143-	=143-	=143-	=143-	=143-	=143-
1r	.	1r	.	1r	.	1ryy	4c/	e-	1g	e-	1cc	e-	1ryy
.	.	.	.	.	.	.	4d\	.	.	.	.	.	.
.	.	.	.	.	.	.	4e\	.	.	.	.	.	.
.	.	.	.	.	.	.	4f\	.	.	.	.	.	.
=144-	=144-	=144-	=144-	=144-	=144-	=144-	=144-	=144-	=144-	=144-	=144-	=144-	=144-
*	*	*	*	*	*	*	*custos:c	*	*	*	*	*	*
2r	.	2r	.	2r	.	1ryy	2g\	-rat	2g\	-rat	2b\	-rat	1ryy
!	!	!	!	!	!	!	!LO:PB:g=original	!	!	!	!	!	!
1c\	In	1g\	In	1cc\	In	.	2r	.	2r	.	2r	.	.
=145-	=145-	=145-	=145-	=145-	=145-	=145-	=145-	=145-	=145-	=145-	=145-	=145-	=145-
.	.	.	.	.	.	1ryy	0r	.	0r	.	0r	.	1ryy
2G/	Prin-	2g\	prin-	2b\	prin-	.	.	.	.	.	.	.	.
=146-	=146-	=146-	=146-	=146-	=146-	=146-	=146-	=146-	=146-	=146-	=146-	=146-	=146-
!	!	!LO:TX:b:t=P:problem=# below	!	!	!	!	!	!	!	!	!	!	!
2.d\	-ci-	2.f#X\	-ci-	2.a\	-ci-	1ryy	.	.	.	.	.	.	1ryy
4d\	-pi-	4f#\	-pi-	4a\	-pi-	.	.	.	.	.	.	.	.
=147-	=147-	=147-	=147-	=147-	=147-	=147-	=147-	=147-	=147-	=147-	=147-	=147-	=147-
2G/	-o	2g\	-o	2b\	-o	1ryy	2r	.	2r	.	2r	.	1ryy
!	!	!	!	!	!	!	!LO:TX:t=P:tekst:problem	!	!	!	!	!	!
2r	.	2r	.	2r	.	.	2c/	Abr	2g\	et	2cc\	et	.
=148-	=148-	=148-	=148-	=148-	=148-	=148-	=148-	=148-	=148-	=148-	=148-	=148-	=148-
2r	.	2r	.	2r	.	1ryy	2f\	.	2a\	nunc	2cc\	nunc	1ryy
2c/	et	2g\	(et)	2cc\	et	.	2c/	.	2g\	et	2cc\	et	.
=149-	=149-	=149-	=149-	=149-	=149-	=149-	=149-	=149-	=149-	=149-	=149-	=149-	=149-
2f\	nunc	2fny\	nu[n]c	4a\	nunc	1ryy	2d\	.	2f\	sem-	4a\	ſem-	1ryy
*	*	*	*	*custos:cc	*	*	*	*	*	*	*	*	*
.	.	.	.	4b\	.	.	.	.	.	.	4b\	.	.
!	!	!	!	!LO:LB:g=original	!	!	!	!	!	!	!	!	!
2c/	et	2g\	et	2cc\	et	.	2c/	.	2g\	-per,	2cc\	-per,	.
=150-	=150-	=150-	=150-	=150-	=150-	=150-	=150-	=150-	=150-	=150-	=150-	=150-	=150-
2G/	sem-	2g\	sem-	2b\	sem-	1ryy	2r	.	2r	.	2r	.	1ryy
2c/	-per	2g\	-per	2cc\	-per,	.	2c/	(et)	2g\	et	2cc\	et	.
=151-	=151-	=151-	=151-	=151-	=151-	=151-	=151-	=151-	=151-	=151-	=151-	=151-	=151-
*	*	*custos:g	*	*	*	*	*	*	*	*	*	*	*
2r	.	2r	.	2r	.	1ryy	2f\	nunc	2a\	nunc	2cc\	nunc	1ryy
!	!	!LO:LB:g=original	!	!	!	!	!	!	!	!	!	!	!
2c/	et	2g\	(et)	2cc\	et	.	2c/	et	2g\	et	2cc\	et	.
=152-	=152-	=152-	=152-	=152-	=152-	=152-	=152-	=152-	=152-	=152-	=152-	=152-	=152-
2f\	nunc	2f\	nunc	4a\	nunc	1ryy	2d\	sem-	2g\	sem-	4a\	ſem-	1ryy
.	.	.	.	4b\	.	.	.	.	.	.	4b\	.	.
2c/	et	2g\	(et)	2cc\	et	.	2c/	-per,	2g\	-per,	2cc\	-per,	.
=153-	=153-	=153-	=153-	=153-	=153-	=153-	=153-	=153-	=153-	=153-	=153-	=153-	=153-
2G/	sem-	2g\	sem-	2b\	Sem-	1ryy	1r	.	1r	.	1r	.	1ryy
2c/	-per	2g\	-per	2cc,<\	-per,	.	.	.	.	.	.	.	.
=154-	=154-	=154-	=154-	=154-	=154-	=154-	=154-	=154-	=154-	=154-	=154-	=154-	=154-
1.g	et	1g	(et)	1.b	et	1ryy	1.G	(et)	1.g	et	1.b	et	1ryy
=155-	=155-	=155-	=155-	=155-	=155-	=155-	=155-	=155-	=155-	=155-	=155-	=155-	=155-
.	.	1d	in	.	.	1ryy	.	.	.	.	.	.	1ryy
*	*	*	*	*	*	*	*	*	*custos:g	*	*	*	*
2g\	in	.	.	2g/	in	.	2G/	in	2g\	in	2b\	in	.
!	!	!	!	!	!	!	!	!	!LO:LB:g=original	!	!	!	!
=156-	=156-	=156-	=156-	=156-	=156-	=156-	=156-	=156-	=156-	=156-	=156-	=156-	=156-
*custos:c	*	*	*	*	*	*	*	*	*	*	*	*	*
!LO:TX:t=P:problem=kropka w kolejnym systemie	!	!	!	!	!	!	!	!	!	!	!	!	!
2.c/	ſe-	2.g\	Se-	2.cc\	se-	1ryy	2.c/	Se-	2.g\	se-	2.cc\	ſe-	1ryy
*	*	*	*	*	*	*	*	*	*	*	*custos:b	*	*
!LO:LB:g=original	!	!	!	!	!	!	!	!	!	!	!	!	!
4c/	-cu-	4g\	-cu-	4g/	-cu-	.	4c/	-cu-	4g\	-cu-	4cc\	-ku-	.
!	!	!	!	!	!	!	!	!	!	!	!LO:LB:g=original	!	!
=157-	=157-	=157-	=157-	=157-	=157-	=157-	=157-	=157-	=157-	=157-	=157-	=157-	=157-
2g\	-la	2d/	-la	2g/	-la	1ryy	2G/	-la	2g\	-la	2b\	-la	1ryy
4g\	se-	4g\	Se-	4b\	se-	.	2r	.	2r	.	2r	.	.
4g\	-cu-	4g\	-cu-	4b\	-cu-	.	.	.	.	.	.	.	.
=158-	=158-	=158-	=158-	=158-	=158-	=158-	=158-	=158-	=158-	=158-	=158-	=158-	=158-
2c/	-lo-	2g\	-lo-	2cc\	-lo-	1ryy	2r	.	2r	.	2r	.	1ryy
2G/	-rum	2g\	-rum	2b\	-rum	.	4g\	Se-	4g\	se-	4b\	ſe-	.
.	.	.	.	.	.	.	4g\	-cu-	4g\	-cu-	4b\	-ku-	.
=159-	=159-	=159-	=159-	=159-	=159-	=159-	=159-	=159-	=159-	=159-	=159-	=159-	=159-
2c/	a-	2g\	a-	2cc\	a-	1ryy	2c/	-lo-	2g\	-lo-	2cc\	-lo-	1ryy
2g\	-men	2g\	-men	2b\	-men,	.	2G/	-rum	2g\	-rum	2b\	-rum	.
=160-	=160-	=160-	=160-	=160-	=160-	=160-	=160-	=160-	=160-	=160-	=160-	=160-	=160-
*	*	*	*	*	*	*	*custos:G	*	*	*	*	*	*
!	!	!	!	!	!	!	!LO:SIC:v:l:s=A-	!	!	!	!	!	!
!	!	!	!	!	!	!	!	!	!LO:TX:b:t=P:problem=# below	!	!	!	!
2r	.	2r	.	2r	.	1ryy	2d\	Amen-	2f#X\	a-	2a\	a-	1ryy
!	!	!	!	!	!	!	!LO:LB:g=original	!	!	!	!	!	!
4g\	Se-	4g\	Se-	4b\	se-	.	2G/	-men	2g\	-men,	2b\	-men,	.
4g\	-cu-	4g\	-cu-	4b\	-cu-	.	.	.	.	.	.	.	.
=161-	=161-	=161-	=161-	=161-	=161-	=161-	=161-	=161-	=161-	=161-	=161-	=161-	=161-
*	*	*	*	*custos:cc	*	*	*	*	*	*	*	*	*
2f\	-lo-	2a\	-lo-	2cc\	-lo-	1ryy	1r	.	1r	.	1r	.	1ryy
!	!	!	!	!LO:LB:g=original	!	!	!	!	!	!	!	!	!
2c/	-rum	2g\	-rum	2cc\	-rum	.	.	.	.	.	.	.	.
=162-	=162-	=162-	=162-	=162-	=162-	=162-	=162-	=162-	=162-	=162-	=162-	=162-	=162-
!	!	!	!	!	!	!	!	!	!	!	!LO:TX:t=P:problem=pauza 2r zamazana	!	!
2g\	a-	2g\	a-	2b\	a-	1ryy	2r	.	2r	.	2ryy	.	1ryy
*	*	*custos:g	*	*	*	*	*	*	*	*	*	*	*
2c/	-men	2g\	-men	2cc\	-men,	.	4c/	Se-	4g\	se-	4cc\	ſe-	.
.	.	.	.	.	.	.	4c/	-cu-	4g\	-cu-	4cc\	-ku-	.
!	!	!LO:LB:g=original	!	!	!	!	!	!	!	!	!	!	!
=163-	=163-	=163-	=163-	=163-	=163-	=163-	=163-	=163-	=163-	=163-	=163-	=163-	=163-
!	!	!	!	!LO:TX:t=P:problem=pauza 0r zamazana	!	!	!	!	!	!	!	!	!
0r	.	0r	.	0ryy	.	1ryy	2f\	-lo-	2a\	-lo-	2cc\	-lo-	1ryy
.	.	.	.	.	.	.	2c/	-rum	2g\	-rum	2cc\	-rum	.
=164-	=164-	=164-	=164-	=164-	=164-	=164-	=164-	=164-	=164-	=164-	=164-	=164-	=164-
.	.	.	.	.	.	1ryy	2G/	A-	2g\	a-	2b\	a-	1ryy
.	.	.	.	.	.	.	2c/	-men	2g\	-men,	2cc,<\	-men	.
=165-	=165-	=165-	=165-	=165-	=165-	=165-	=165-	=165-	=165-	=165-	=165-	=165-	=165-
1.g	et	1g	(et)	1b	et	1ryy	1.G	(et)	1.g	et	1dd	et	1ryy
=166-	=166-	=166-	=166-	=166-	=166-	=166-	=166-	=166-	=166-	=166-	=166-	=166-	=166-
.	.	2d/	in	1g	in	1ryy	.	.	.	.	1b	in	1ryy
2g\	in	1g\	Se-	.	.	.	2G/	in	2g\	in	.	.	.
=167-	=167-	=167-	=167-	=167-	=167-	=167-	=167-	=167-	=167-	=167-	=167-	=167-	=167-
4c/	se-	.	.	2.cc\	se-	1ryy	2.c/	Se-	2.g\	se-	2.cc\	ſe-	1ryy
4d\	.	.	.	.	.	.	.	.	.	.	.	.	.
4e\	cu-	2g\	-cu-	.	.	.	.	.	.	.	.	.	.
4f\	.	.	.	4g/	-cu-	.	4c/	-cu-	4g\	-cu-	4cc\	-ku-	.
=168-	=168-	=168-	=168-	=168-	=168-	=168-	=168-	=168-	=168-	=168-	=168-	=168-	=168-
2g\	-la	2d/	-la	2g/	-la	1ryy	2G/	-la	2g\	-la	2b,<\	-la	1ryy
*custos:g	*	*	*	*	*	*	*	*	*	*	*	*	*
1d\	se-	1a\	Se-	1a\	se-	.	1d\	Se-	1fny\	se-	1a\	ſe-	.
=169-	=169-	=169-	=169-	=169-	=169-	=169-	=169-	=169-	=169-	=169-	=169-	=169-	=169-
.	.	.	.	.	.	1ryy	.	.	.	.	.	.	1ryy
!LO:LB:g=original	!	!	!	!	!	!	!	!	!	!	!	!	!
2g\	-cu-	2d/	-cu-	2g/	-cu-	.	2G/	-cu-	2g\	-cu-	2dd\	-ku-	.
=170-	=170-	=170-	=170-	=170-	=170-	=170-	=170-	=170-	=170-	=170-	=170-	=170-	=170-
*	*	*	*	*	*	*	*	*	*custos:g	*	*	*	*
2c/	-lo-	2g\	-lo-	2cc\	-lo-	1ryy	2c/	-lo-	2g\	-lo-	2cc\	-lo-	1ryy
!	!	!	!	!	!	!	!	!	!LO:LB:g=original	!	!	!	!
2g\	-rum	2d/	-rum	2g/	-rum	.	2G/	-rum	2g\	-rum	2b\	-rum	.
=171-	=171-	=171-	=171-	=171-	=171-	=171-	=171-	=171-	=171-	=171-	=171-	=171-	=171-
*	*	*	*	*lig	*	*	*	*	*	*	*	*	*
0d	A-	0d	A-	1a	a-	1ryy	0d	A-	0a	a-	0a	a-	1ryy
=172-	=172-	=172-	=172-	=172-	=172-	=172-	=172-	=172-	=172-	=172-	=172-	=172-	=172-
.	.	.	.	1dd	.	1ryy	.	.	.	.	.	.	1ryy
*	*	*	*	*Xlig	*	*	*	*	*	*	*	*	*
=173-	=173-	=173-	=173-	=173-	=173-	=173-	=173-	=173-	=173-	=173-	=173-	=173-	=173-
1gl;;	-men	1dl;;	-men	1bl;;	-men;	1ryy	1Gl;;	-men;	1gl;;	-men;	1bl;;	-men;	1ryy
==	==	==	==	==	==	==	==	==	==	==	==	==	==
*-	*-	*-	*-	*-	*-	*-	*-	*-	*-	*-	*-	*-	*-
!!!system-decoration: [(g1)][(g2)]
!!!RDF**kern: < = below
!!!RDF**kern: l = terminal long
!!!ENC: Filip Voros
!!!END: 2021-10-17
!!!ENC: Andrzej Kubiczek
!!!END: 2021-10-23
